X: 197
T:Lydian/Major/Mixolydian (4,7-gap, fa/do/so, pi-1) Pentatonic Scales
L:1/4
M:8/4
K:DbLyd
"^D flat"  D2 EF AB d2|d2 BA FE D2||
M:8/4
K:AbLyd
"^A flat"  A2 Bc ef a2|a2 fe cB A2||
M:8/4
K:EbLyd
"^E flat"  E2 FG Bc e2|e2 cB GF E2||
M:8/4
K:BbLyd
"^B flat"  B2 cd fg b2|b2 gf dc B2||
M:8/4
K:FLyd
"^F"       F2 GA cd f2|f2 dc AG F2||
M:8/4
K:C
"^C"       C2 DE GA c2|c2 AG ED C2||
M:8/4
K:GMix
"^G"       G2 AB de g2|g2 ed BA G2||
M:8/4
K:DMix
"^D"       D2 EF AB d2|d2 BA FE D2||
M:8/4
K:AMix
"^A"       A2 Bc ef a2|a2 fe cB A2||
M:8/4
K:EMix
"^E"       E2 FG Bc e2|e2 cB GF E2||
M:8/4
K:BMix
"^B"       B2 cd fg b2|b2 gf dc B2|]


5. The Major/Mixolydian/Dorian Pentatonic Mode
== ===========================================

The MAJOR/MIXOLYDIAN/DORIAN PENTATONIC mode is what you get by playing on
the black notes of the piano, taking C sharp as the home note.  It could
be taken as being major, mixolydian or dorian; the third and seventh are
missing.  Its interval sequence is TmTTm; in A it's ABde^fa.  It could be
done on the pipes as the A-mode with the GC-gap pitch set, or the D-mode
with the CF-gap set.  It's the rarest of all modes in Scottish music; some
pipe tunes come close for long stretches, but where there are notes that
bridge the gaps, they matter.  In sol-fa, it can start on do, so or re.  In
Bronson's scheme it's pi-2.  In the Hungarian system it's sol-pentatonic.

